src/icons/html.svg

<svg version="1.1" viewBox="0 0 24 24" xmlns="http://www.w3.org/2000/svg">
<path d="m12 17.56l4.07-1.13.55-6.1h-7.24l-.18-2.03h7.6l.2-1.99h-10l.56 6.01h6.89l-.23 2.58-2.22.6-2.22-.6-.14-1.66h-2l.29 3.19 4.07 1.13m-7.93-14.56h15.86l-1.43 16.2-6.5 1.8-6.5-1.8-1.43-16.2z" fill="#e44d26"/>
</svg>

<svg viewBox="0 0 24 24" xmlns="http://www.w3.org/2000/svg"><path d="m12 17.56 4.07-1.13.55-6.1H9.38L9.2 8.3h7.6l.2-1.99H7l.56 6.01h6.89l-.23 2.58-2.22.6-2.22-.6-.14-1.66h-2l.29 3.19L12 17.56M4.07 3h15.86L18.5 19.2 12 21l-6.5-1.8L4.07 3z" fill="#e44d26"/></svg>
